X:1
T:My True Love once He courted Me
B:Kidson F, 1891, <I>Traditional Tunes</I>, Oxford, Taphouse and Son
Z:Frank Kidson
S:Mr Charles Lotley
M:6/4     %Meter
L:1/8     %
K:D
B2 |A4 B2 A4 G2 |(E2D2) E2 D4
w:There is a bird in yon-*der tree.
 A2 |d2 c2 B2 (A2c2) e2 | (d2c2) B2 A4
w:They say it is blind_ and can-*not see:
D2 |D2 D2 D2 (d2c2) d2 |B2 ^A2 B2 F4
w:I wish it had been_ the same with_ me
 E2 |D4 B2 B2 A2 A2 | (A2E2) F2 D4  |]
w:Ere my false lo-ver de-ceiv-*ed me.
W:
